resources/svg/fan-option.svg

<svg xmlns="http://www.w3.org/2000/svg" viewBox="0 0 24 24" fill="currentColor"><rect x="2" y="2" width="20" height="20" rx="1" stroke="black" stroke-width="2"/><rect x="2" y="2" width="20" height="20" rx="10" stroke="black" stroke-width="2"/><path d="M14.9999 9.50009C15.4999 9.16675 15.8999 7.80009 15.4999 7.00009C15.0999 6.20009 13.3334 5.66674 13.0001 5.50007M14 10.5001C15.5001 8.5001 14.0001 7.00006 11.5 5.5001C9.95405 4.57263 13.4999 4.00009 16.0001 6.00009C17.8751 7.49994 17 8.50009 14 11.5001V10.5001Z" stroke="black" stroke-width="2"/><path d="M8.98522 14.402C8.48522 14.7353 8.08522 16.102 8.48522 16.902C8.88522 17.702 10.6517 18.2354 10.9851 18.402M9.98516 13.402C8.48509 15.402 9.98504 16.902 12.4852 18.402C14.0311 19.3295 10.4852 19.902 7.98502 17.902C6.11005 16.4022 6.98516 15.402 9.98516 12.402V13.402Z" stroke="black" stroke-width="2"/><path d="M9.54159 8.94372C9.20826 8.44372 7.84159 8.04372 7.04159 8.44372C6.24159 8.84372 5.70824 10.6102 5.54157 10.9435M10.5416 9.94366C8.54161 8.44359 7.04156 9.94354 5.54161 12.4437C4.61413 13.9896 4.04159 10.4437 6.04159 7.94352C7.54145 6.06854 8.5416 6.94366 11.5416 9.94366H10.5416Z" stroke="black" stroke-width="2"/><path d="M14.4436 14.9584C14.7769 15.4584 16.1436 15.8584 16.9436 15.4584C17.7436 15.0584 18.2769 13.2919 18.4436 12.9586M13.4436 13.9584C15.4436 15.4585 16.9436 13.9586 18.4436 11.4584C19.371 9.91249 19.9436 13.4584 17.9436 15.9586C16.4437 17.8336 15.4436 16.9584 12.4436 13.9584H13.4436Z" stroke="black" stroke-width="2"/><path fill-rule="evenodd" clip-rule="evenodd" d="M3.5 5C4.32843 5 5 4.32843 5 3.5C5 2.67157 4.32843 2 3.5 2C2.67157 2 2 2.67157 2 3.5C2 4.32843 2.67157 5 3.5 5Z" stroke="black" stroke-width="2"/><path fill-rule="evenodd" clip-rule="evenodd" d="M3.5 22C4.32843 22 5 21.3284 5 20.5C5 19.6716 4.32843 19 3.5 19C2.67157 19 2 19.6716 2 20.5C2 21.3284 2.67157 22 3.5 22Z" stroke="black" stroke-width="2"/><path fill-rule="evenodd" clip-rule="evenodd" d="M20.5 22C21.3284 22 22 21.3284 22 20.5C22 19.6716 21.3284 19 20.5 19C19.6716 19 19 19.6716 19 20.5C19 21.3284 19.6716 22 20.5 22Z" stroke="black" stroke-width="2"/><path fill-rule="evenodd" clip-rule="evenodd" d="M20.5 5C21.3284 5 22 4.32843 22 3.5C22 2.67157 21.3284 2 20.5 2C19.6716 2 19 2.67157 19 3.5C19 4.32843 19.6716 5 20.5 5Z" stroke="black" stroke-width="2"/><path fill-rule="evenodd" clip-rule="evenodd" d="M12 14C13.1046 14 14 13.1046 14 12C14 10.8954 13.1046 10 12 10C10.8954 10 10 10.8954 10 12C10 13.1046 10.8954 14 12 14Z" stroke="black" stroke-width="2"/></svg>

<svg viewBox="0 0 24 24"><g fill="none"><rect x="2" y="2" width="20" height="20" rx="1" stroke="currentColor" stroke-width="2"/><rect x="2" y="2" width="20" height="20" rx="10" stroke="currentColor" stroke-width="2"/><path d="M15 9.5c.5-.333.9-1.7.5-2.5S13.333 5.667 13 5.5m1 5c1.5-2 0-3.5-2.5-5c-1.546-.927 2-1.5 4.5.5c1.875 1.5 1 2.5-2 5.5v-1z" stroke="currentColor" stroke-width="2"/><path d="M8.985 14.402c-.5.333-.9 1.7-.5 2.5s2.167 1.333 2.5 1.5m-1-5c-1.5 2 0 3.5 2.5 5c1.546.927-2 1.5-4.5-.5c-1.875-1.5-1-2.5 2-5.5v1z" stroke="currentColor" stroke-width="2"/><path d="M9.542 8.944c-.334-.5-1.7-.9-2.5-.5s-1.334 2.166-1.5 2.5m5-1c-2-1.5-3.5 0-5 2.5c-.928 1.546-1.5-2 .5-4.5c1.5-1.875 2.5-1 5.5 2h-1z" stroke="currentColor" stroke-width="2"/><path d="M14.444 14.958c.333.5 1.7.9 2.5.5s1.333-2.166 1.5-2.5m-5 1c2 1.5 3.5 0 5-2.5c.927-1.546 1.5 2-.5 4.5c-1.5 1.876-2.5 1-5.5-2h1z" stroke="currentColor" stroke-width="2"/><path clip-rule="evenodd" d="M3.5 5a1.5 1.5 0 1 0 0-3a1.5 1.5 0 0 0 0 3z" stroke="currentColor" stroke-width="2"/><path clip-rule="evenodd" d="M3.5 22a1.5 1.5 0 1 0 0-3a1.5 1.5 0 0 0 0 3z" stroke="currentColor" stroke-width="2"/><path clip-rule="evenodd" d="M20.5 22a1.5 1.5 0 1 0 0-3a1.5 1.5 0 0 0 0 3z" stroke="currentColor" stroke-width="2"/><path clip-rule="evenodd" d="M20.5 5a1.5 1.5 0 1 0 0-3a1.5 1.5 0 0 0 0 3z" stroke="currentColor" stroke-width="2"/><path clip-rule="evenodd" d="M12 14a2 2 0 1 0 0-4a2 2 0 0 0 0 4z" stroke="currentColor" stroke-width="2"/></g></svg>
